X: 4274
T: OHIO
R: Hornpipe.
%R: hornpipe, reel
B: James Kerr "Merry Melodies" v.4 p.29 #274
Z: 2016 John Chambers <jc:trillian.mit.edu>
M: C|
L: 1/8
K: A
|: A2A2 BdcB | A2A2 BdcB |\
[1 ABcd efga | bagf edcB :|\
[2 Acfe ^dBcd | e2g2e2 z2 |:\
f2ff f2f2 |
fedc BcdB |\
e2ee e2e2 | edcB Acde |\
f2f2 egfe | d2d2 cedc |\
B^ABc defg | a2a2a2 z2 :|

%%sep 1 1 500
%%sep 1 1 500

